icons/archive-add.svg

<svg width="24" height="24" viewBox="0 0 24 24" fill="none" xmlns="http://www.w3.org/2000/svg">
<path fill-rule="evenodd" clip-rule="evenodd" d="M5.5 4.75C4.51421 4.75 3.75 5.51421 3.75 6.5C3.75 7.48579 4.51421 8.25 5.5 8.25H18.5C18.5458 8.25 18.5918 8.24765 18.638 8.24303C18.7453 8.18376 18.8687 8.15002 19 8.15002C19.0095 8.15002 19.0189 8.1502 19.0284 8.15055C19.2717 8.05959 19.5058 7.90857 19.7072 7.70717C20.0528 7.36159 20.25 6.91986 20.25 6.5C20.25 5.51421 19.4858 4.75 18.5 4.75H5.5ZM19.75 9.4747C20.1332 9.30167 20.479 9.05671 20.7678 8.76783C21.3472 8.18841 21.75 7.38014 21.75 6.5C21.75 4.68579 20.3142 3.25 18.5 3.25H5.5C3.68579 3.25 2.25 4.68579 2.25 6.5C2.25 7.86964 3.06832 9.02359 4.25 9.5069V17C4.25 19.1142 5.88579 20.75 8 20.75H12C12.4142 20.75 12.75 20.4142 12.75 20C12.75 19.5858 12.4142 19.25 12 19.25H8C6.71421 19.25 5.75 18.2858 5.75 17V9.75H18.25V14C18.25 14.4142 18.5858 14.75 19 14.75C19.4142 14.75 19.75 14.4142 19.75 14V9.4747ZM16 13.25C16.4142 13.25 16.75 13.5858 16.75 14V16.25H19C19.4142 16.25 19.75 16.5858 19.75 17C19.75 17.4142 19.4142 17.75 19 17.75H16.75V20C16.75 20.4142 16.4142 20.75 16 20.75C15.5858 20.75 15.25 20.4142 15.25 20V17.75H13C12.5858 17.75 12.25 17.4142 12.25 17C12.25 16.5858 12.5858 16.25 13 16.25H15.25V14C15.25 13.5858 15.5858 13.25 16 13.25Z" fill="black"/>
</svg>

<svg xmlns="http://www.w3.org/2000/svg" fill="none" viewBox="0 0 24 24">
  <path fill="#000" fill-rule="evenodd" d="M5.5 4.75c-.986 0-1.75.764-1.75 1.75s.764 1.75 1.75 1.75h13c.046 0 .092-.002.138-.007a.746.746 0 0 1 .39-.092 1.92 1.92 0 0 0 .68-.444c.345-.345.542-.787.542-1.207 0-.986-.764-1.75-1.75-1.75h-13Zm14.25 4.725a3.463 3.463 0 0 0 1.018-.707c.58-.58.982-1.388.982-2.268a3.226 3.226 0 0 0-3.25-3.25h-13A3.226 3.226 0 0 0 2.25 6.5c0 1.37.818 2.524 2 3.007V17c0 2.114 1.636 3.75 3.75 3.75h4a.75.75 0 0 0 0-1.5H8c-1.286 0-2.25-.964-2.25-2.25V9.75h12.5V14a.75.75 0 0 0 1.5 0V9.475ZM16 13.25a.75.75 0 0 1 .75.75v2.25H19a.75.75 0 0 1 0 1.5h-2.25V20a.75.75 0 0 1-1.5 0v-2.25H13a.75.75 0 0 1 0-1.5h2.25V14a.75.75 0 0 1 .75-.75Z" clip-rule="evenodd"/>
</svg>
